assets/animations/poop.svg

<svg viewBox="0 0 582.42 497.24" xmlns="http://www.w3.org/2000/svg"><g transform="translate(-9.58 -49.25)"><path d="m14 370.77c-8.85 21.16-27.16 172.47 209.09 174.93s338.67-65.93 360.57-118.26c29.39-70.22-22.6-117-98.34-91.16s-213.63 24.64-270.15 13.55-172.94-46.83-201.17 20.94z" fill="#774e3a"/><path d="m295.43 240.19c-119.82 9.86-157.12-61.59-209.12 14.81-28.31 41.63-21.47 128.09 167.29 138s318.18-51.47 275.81-134.28c-32.78-64.11-109.26-28.79-233.98-18.53z" fill="#805941"/><path d="m73.88 369.54c25.3 34.93 128.86 48 248.68 43.12 107.24-4.41 170.89-42.22 192.25-76.33-42.09 39.67-139.26 62.98-261.21 56.67-100.15-5.23-149.1-32-168.76-62.25-5.49.25-27.91 15.38-10.96 38.79z" fill="#0e0600" opacity=".42"/><path d="m269.43 277.15c100.63 19.55 174.07-29.15 180.9-55.75-39.26 1.58-90.68 13.51-154.9 18.79-50.76 4.18-86.71-6.24-115.24-13.82-9.33-2.49-56.57 22.45 89.24 50.78z" fill="#0e0600" opacity=".42"/><path d="m310.12 49.25c-73.47 64.06-125.47 62.83-141.29 120.75-9.17 33.56 2.1 99.55 145.81 98.55 176.36-1.26 177.12-115.55 82.52-126.91-133.38-16.01-87.04-92.39-87.04-92.39z" fill="#8f694b"/><g fill="#0e0600"><path d="m168.83 170c-9.17 33.55 2.1 99.55 145.81 98.55 129.57-.93 164.36-62.88 136.16-100.18-35.25 21.14-121.5 63-201.72 25-53.65-25.42-43.81-59.7-18.15-89.3-31.14 18.36-52.83 31.99-62.1 65.93z" opacity=".25"/><path d="m253.6 393c159.27 8.31 276.29-34 283.52-97.22l-41.62 24.49c-68.95 40.65-364 19.71-396.75-4.93-16.5-12.4-18.11-35.4-15.64-55.2-24.32 43.24-10.78 123.34 170.49 132.86z" opacity=".25"/><path d="m224.18 546.43c236.24 2.46 338.67-65.93 360.57-118.26a109.49 109.49 0 0 0 7.25-24.65c-5 7.86-11.72 17.58-20.8 29.57-37.3 49.28-288.24 80.08-438.57 24.64-90.63-33.43-114.33-63.73-118.82-82.51-8.72 31.06-15 168.86 210.37 171.21z" opacity=".25"/></g><path d="m383.68 179.5c0 5.49 19.46 8.73 17.84 2.91s-17.84-9.69-17.84-2.91z" fill="#8f694b"/><path d="m398.79 164.15c0 4.8 20.44 7.63 18.73 2.54s-18.73-8.48-18.73-2.54z" fill="#8f694b"/><path d="m182.28 216.75c0 5.76 32.95 9.16 30.21 3.06s-30.21-10.18-30.21-3.06z" fill="#523626"/><path d="m477.93 239.59c0 5.48 32 8.72 29.35 2.91s-29.35-9.7-29.35-2.91z" fill="#8f6349"/><path d="m532.69 438.72c1.18 5.33 15.24 5 12.87-.4s-14.33-6.19-12.87.4z" fill="#8f5e48"/><path d="m120.91 348.33c-1.09 6 34.8 17.43 32.92 10.42s-31.57-17.83-32.92-10.42z" fill="#442d1e"/><path d="m62.77 488.4c-.14 6.21 27.06 10.6 24.93 3.94s-24.76-11.63-24.93-3.94z" fill="#3b2517"/><path d="m49.05 472.47c1.39 6 14.62 6.19 12.11.08s-13.83-7.55-12.11-.08z" fill="#3b2517"/></g></svg>

<svg id="Layer_1" data-name="Layer 1" xmlns="http://www.w3.org/2000/svg" viewBox="0 0 582.42 497.24"><defs><style>.cls-1{fill:#774e3a;}.cls-2{fill:#805941;}.cls-3,.cls-5{fill:#0e0600;}.cls-3{opacity:0.42;}.cls-4{fill:#8f694b;}.cls-5{opacity:0.25;}.cls-6{fill:#523626;}.cls-7{fill:#8f6349;}.cls-8{fill:#8f5e48;}.cls-9{fill:#442d1e;}.cls-10{fill:#3b2517;}</style></defs><path class="cls-1" d="M14,370.77C5.15,391.93-13.16,543.24,223.09,545.7s338.67-65.93,360.57-118.26c29.39-70.22-22.6-117-98.34-91.16s-213.63,24.64-270.15,13.55S42.23,303,14,370.77Z" transform="translate(-9.58 -49.25)"/><path class="cls-2" d="M295.43,240.19C175.61,250.05,138.31,178.6,86.31,255,58,296.63,64.84,383.09,253.6,393s318.18-51.47,275.81-134.28C496.63,194.61,420.15,229.93,295.43,240.19Z" transform="translate(-9.58 -49.25)"/><path class="cls-3" d="M73.88,369.54c25.3,34.93,128.86,48,248.68,43.12,107.24-4.41,170.89-42.22,192.25-76.33C472.72,376,375.55,399.31,253.6,393c-100.15-5.23-149.1-32-168.76-62.25C79.35,331,56.93,346.13,73.88,369.54Z" transform="translate(-9.58 -49.25)"/><path class="cls-3" d="M269.43,277.15C370.06,296.7,443.5,248,450.33,221.4c-39.26,1.58-90.68,13.51-154.9,18.79-50.76,4.18-86.71-6.24-115.24-13.82C170.86,223.88,123.62,248.82,269.43,277.15Z" transform="translate(-9.58 -49.25)"/><path class="cls-4" d="M310.12,49.25C236.65,113.31,184.65,112.08,168.83,170c-9.17,33.56,2.1,99.55,145.81,98.55C491,267.29,491.76,153,397.16,141.64,263.78,125.63,310.12,49.25,310.12,49.25Z" transform="translate(-9.58 -49.25)"/><path class="cls-5" d="M168.83,170c-9.17,33.55,2.1,99.55,145.81,98.55C444.21,267.62,479,205.67,450.8,168.37c-35.25,21.14-121.5,63-201.72,25-53.65-25.42-43.81-59.7-18.15-89.3C199.79,122.43,178.1,136.06,168.83,170Z" transform="translate(-9.58 -49.25)"/><path class="cls-5" d="M253.6,393c159.27,8.31,276.29-34,283.52-97.22L495.5,320.27c-68.95,40.65-364,19.71-396.75-4.93-16.5-12.4-18.11-35.4-15.64-55.2C58.79,303.38,72.33,383.48,253.6,393Z" transform="translate(-9.58 -49.25)"/><path class="cls-5" d="M224.18,546.43c236.24,2.46,338.67-65.93,360.57-118.26A109.49,109.49,0,0,0,592,403.52c-5,7.86-11.72,17.58-20.8,29.57-37.3,49.28-288.24,80.08-438.57,24.64C42,424.3,18.3,394,13.81,375.22,5.09,406.28-1.19,544.08,224.18,546.43Z" transform="translate(-9.58 -49.25)"/><path class="cls-4" d="M383.68,179.5c0,5.49,19.46,8.73,17.84,2.91S383.68,172.72,383.68,179.5Z" transform="translate(-9.58 -49.25)"/><path class="cls-4" d="M398.79,164.15c0,4.8,20.44,7.63,18.73,2.54S398.79,158.21,398.79,164.15Z" transform="translate(-9.58 -49.25)"/><path class="cls-6" d="M182.28,216.75c0,5.76,32.95,9.16,30.21,3.06S182.28,209.63,182.28,216.75Z" transform="translate(-9.58 -49.25)"/><path class="cls-7" d="M477.93,239.59c0,5.48,32,8.72,29.35,2.91S477.93,232.8,477.93,239.59Z" transform="translate(-9.58 -49.25)"/><path class="cls-8" d="M532.69,438.72c1.18,5.33,15.24,5,12.87-.4S531.23,432.13,532.69,438.72Z" transform="translate(-9.58 -49.25)"/><path class="cls-9" d="M120.91,348.33c-1.09,6,34.8,17.43,32.92,10.42S122.26,340.92,120.91,348.33Z" transform="translate(-9.58 -49.25)"/><path class="cls-10" d="M62.77,488.4c-.14,6.21,27.06,10.6,24.93,3.94S62.94,480.71,62.77,488.4Z" transform="translate(-9.58 -49.25)"/><path class="cls-10" d="M49.05,472.47c1.39,6,14.62,6.19,12.11.08S47.33,465,49.05,472.47Z" transform="translate(-9.58 -49.25)"/></svg>
